X:1
T:With Joy the Morn Is Waking
T:With Joy the Morn Is Waking
T:Joseph Lincoln Hall
T:Irvin H. Mack, 1900
T:Public Domain Courtesy of the Cyber Hymnal™
T:Public Domain Courtesy of the Cyber Hymnal™
C:Joseph Lincoln Hall
Z:Public Domain
Z:Courtesy of the Cyber Hymnal™
%%score ( 1 2 ) ( 3 4 )
L:1/8
Q:1/4=107
M:4/4
K:F
V:1 treble 
V:2 treble 
V:3 bass 
V:4 bass 
V:1
 C2 | (FE) (DC) D2 E2 | (F3 A) c2 [Fc]2 | [Ec]3 [Ed] [Ec]2 [EG]2 | [Fc]6 C2 | (FE) (DC) D2 E2 | %6
w: 1.~With|joy * the * morn is|wak- * ing, And|bright- ly glows the|sky; The|clouds * of * night are|
w: 2.~Send|forth * the * news with|sing- * ing, And|lift your voic- es|high, To|all * glad * news be|
w: 3.~This|is * the * morn of|glad- * ness, When|ran- somed sin- ners|sing; The|tomb * has * lost its|
 (F3 A) c2 [FA]2 | (GA) (=Bc) [Fd]2 [FB]2 | [Ec]6"^Girls" c2 | e3 d (cB) (AG) | (d3 A) c2 c2 | %11
w: break- * ing, With|an- * thems * from on|high. The|earth a- loud * re- *|joic- * es, A-|
w: bring- * ing, That|man * no * more shall|die; Glad|Eas- ter bells * are *|ring- * ing, And|
w: sad- * ness, For|ris- * en * is the|King; Then|join with count- * less *|le- * gions, That|
 e3 d (cB) (AG) | A6"^Boys" A2 | B3 A (GF) (EF) | (G3 F) D2 D2 | F3 F E2 D2 | !fermata![^CA]6 || %17
w: way with fears, * a- *|way, And|sing with might- * y *|voic- * es, The|Lord is ris’n to-|day.|
w: e- cho thro’ * the *|sky; Their|hap- py notes * are *|wing- * ing, The|Lord has ris’n to-|day.|
w: shout a- loud * the *|strain, To|earth’s re- mot- * est *|re- * gions, The|Sav- ior lives a-|gain.|
"^Refrain" C2 | (FE) (DC) D2 E2 | (F3 A) c2 [Fc]2 | [Ec]3 [Ed] [Ec]2 [EG]2 | [Fc]6 C2 | %22
w: |||||
w: With|joy * the * morn is|wak- * ing, And|bright- ly glows the|sky; The|
w: |||||
 (FE) (DC) D2 E2 | (F3 A) c2 [Fd]2 | [Fc]2 (AF) D2 [B,E]2 | [A,F]6 |] %26
w: ||||
w: clouds * of * night are|break- * ing, With|an- thems * from on|high.|
w: ||||
V:2
 C2 | FEDC D2 E2 | F3 A c2 x2 | x8 | x6 C2 | FEDC D2 E2 | F3 A c2 x2 | E2 E2 x4 | x8 | x8 | x8 | %11
 x8 | x8 | x8 | x6 D2 | F3 F E2 D2 | x6 || C2 | FEDC D2 E2 | F3 A c2 x2 | x8 | x6 C2 | FEDC D2 E2 | %23
 F3 A c2 x2 | x2 AF D2 x2 | x6 |] %26
V:3
 C,2 | F,E, (D,C,) D,2 E,2 | (F,3 A,) C2 [F,A,]2 | [G,B,]3 [G,B,] [G,B,]2 [G,B,]2 | %4
 (z2 [F,A,]2 [F,A,]2) C,2 | F,E,D,C, D,2 E,2 | F,3 A, C2 [F,C]2 | [G,C]2 [G,C]2 [G,=B,]2 [G,D]2 | %8
 (z2 C,2) z2 x2 | C,2 [G,B,CE]2 [G,B,CE]2 [G,B,CE]2 | (F,2 [F,A,C]2) [F,A,C]2 [F,A,C]2 | %11
 C,2 [G,B,CE]2 [G,B,CE]2 [G,B,CE]2 | (F,2 [F,A,C]2 [F,A,C]2) z2 | %13
 A,,2 [E,G,A,^C]2 [E,G,A,C]2 [E,G,A,C]2 | (D,2 [D,F,A,]2) [D,F,A,]2 D,2 | F,3 F, E,2 D,2 | %16
 !fermata![A,,E,]6 || C,2 | F,E, (D,C,) D,2 E,2 | (F,3 A,) C2 [F,A,]2 | %20
 [G,B,]3 [G,B,] [G,B,]2 [G,B,]2 | (z2 [F,A,]2 [F,A,]2) C,2 | F,E,D,C, D,2 E,2 | %23
 F,3 A, C2 [B,,B,]2 | [C,A,]2 A,F, D,2 [C,G,]2 | [G,,F,]6 |] %26
V:4
 C,2 | (F,E,)D,C, D,2 E,2 | F,3 A, C2 x2 | x8 | ([F,A,]6 C,2) | (F,E,) (D,C,) D,2 E,2 | %6
 (F,3 A,) C2 x2 | x8 | [C,C]6 G,E, | x8 | x8 | x8 | x8 | x8 | x6 D,2 | F,3 F, E,2 D,2 | x6 || C,2 | %18
 (F,E,)D,C, D,2 E,2 | F,3 A, C2 x2 | x8 | [F,A,]6 x2 | (F,E,) (D,C,) D,2 E,2 | (F,3 A,) C2 x2 | %24
 x2 (A,F,) D,2 x2 | x6 |] %26

